X: 3
T: Give Us A Drink Of Water
R: slip jig
M: 9/8
L: 1/8
K: Gmaj
D|GBd gdc BAG|B<-dB cAA A2A-|GBd gdc BAG|B<-cA BGG G2:|
d|gfg efg afd|gfg efg a2d|gfg bag fed|efg afd g2d|
gfg efg afd|gfg efg a2a|bag agf gfd|efg afd g2|]


Tune 635	Setting 21774

